<?xml version="1.0" encoding="UTF-8"?>
<map version="1.10" tiledversion="1.11.2" orientation="orthogonal" renderorder="right-down" width="100" height="50" tilewidth="32" tileheight="32" infinite="0" nextlayerid="3" nextobjectid="8">
 <objectgroup id="1" name="terrain" color="#638ba0">
  <object id="1" name="surface" x="0" y="0"><polyline points="0,1070 150,950 340,1100 490,959 650,1070 785,1058 850,1048 985,1048 1045,1076 1165,894 1295,1018 1635,1176 1700,1166 1835,1166 1895,1194 2015,1012 2145,1136 2595,1120 2660,1110 2795,1110 2855,1138 3100,1040 3200,1070"/></object>
 </objectgroup>
 <objectgroup id="2" name="navigation" color="#65e6d1">
  <object id="2" name="pad-0" x="850" y="1048" width="135" height="12"/>
  <object id="3" name="spawn-0" x="707.5" y="578"><point/></object>
  <object id="4" name="pad-1" x="1700" y="1166" width="135" height="12"/>
  <object id="5" name="spawn-1" x="1492.5" y="646"><point/></object>
  <object id="6" name="pad-2" x="2660" y="1110" width="135" height="12"/>
  <object id="7" name="spawn-2" x="2387.5" y="540"><point/></object>
 </objectgroup>
</map>

